contributed-vectors/vlc_benchmark.svg

<?xml version="1.0" encoding="UTF-8" standalone="no"?>
<svg
   xmlns:dc="http://purl.org/dc/elements/1.1/"
   xmlns:cc="http://creativecommons.org/ns#"
   xmlns:rdf="http://www.w3.org/1999/02/22-rdf-syntax-ns#"
   xmlns:svg="http://www.w3.org/2000/svg"
   xmlns="http://www.w3.org/2000/svg"
   xmlns:sodipodi="http://sodipodi.sourceforge.net/DTD/sodipodi-0.dtd"
   xmlns:inkscape="http://www.inkscape.org/namespaces/inkscape"
   viewBox="0 0 192 192"
   version="1.1"
   id="svg16"
   sodipodi:docname="vlc_benchmark.svg"
   inkscape:version="0.92.4 (5da689c313, 2019-01-14)">
  <metadata
     id="metadata20">
    <rdf:RDF>
      <cc:Work
         rdf:about="">
        <dc:format>image/svg+xml</dc:format>
        <dc:type
           rdf:resource="http://purl.org/dc/dcmitype/StillImage" />
        <dc:title></dc:title>
      </cc:Work>
    </rdf:RDF>
  </metadata>
  <sodipodi:namedview
     pagecolor="#ffffff"
     bordercolor="#666666"
     borderopacity="1"
     objecttolerance="10"
     gridtolerance="10"
     guidetolerance="10"
     inkscape:pageopacity="0"
     inkscape:pageshadow="2"
     inkscape:window-width="1920"
     inkscape:window-height="1017"
     id="namedview18"
     showgrid="true"
     inkscape:zoom="2.4583333"
     inkscape:cx="114.91525"
     inkscape:cy="57.762714"
     inkscape:window-x="-8"
     inkscape:window-y="-8"
     inkscape:window-maximized="1"
     inkscape:current-layer="svg16"
     inkscape:snap-global="true">
    <inkscape:grid
       type="xygrid"
       id="grid827"
       spacingx="4"
       spacingy="4" />
  </sodipodi:namedview>
  <defs
     id="defs4">
    <style
       id="style2">.a{fill:none;stroke:#b1b5bd;stroke-linecap:round;stroke-linejoin:round;isolation:isolate;opacity:0.63;}</style>
  </defs>
  <path
     inkscape:connector-curvature="0"
     d="m 114.99,61.364996 c -12.654,-37.598999 -14.393,-41.107 -18.941,-41.261 -4.5478,-0.15372 -5.2939,2.640801 -18.707,41.378 L 46.349,148.675 C 45.6403,150.668 43.7536,152 41.6377,152 h -11.634 c -5.5228,0 -10,4.477 -10,10 0,5.523 4.4772,10 10,10 h 132 c 5.523,0 10,-4.477 10,-10 0,-5.523 -4.477,-10 -10,-10 h -10.657 c -2.105,0 -3.984,-1.318 -4.701,-3.296 z"
     style="clip-rule:evenodd;fill:#f8c18c;fill-rule:evenodd"
     id="path2" />
  <path
     inkscape:connector-curvature="0"
     d="m 77.154,61.999996 -10.664,30 h 59.6 l -10.873,-30 z M 55.828,122 46.3456,148.676 c -0.7087,1.993 -2.595,3.3242 -4.7109,3.3242 h 109.71 c -2.105,0 -3.9842,-1.3189 -4.7012,-3.2969 l -9.6797,-26.703 h -81.135 z"
     style="clip-rule:evenodd;fill:#ffffff;fill-rule:evenodd"
     id="path8" />
  <path
     style="opacity:1;vector-effect:none;fill:#ffffff;fill-opacity:1;fill-rule:evenodd;stroke:none;stroke-width:4;stroke-linecap:round;stroke-linejoin:round;stroke-miterlimit:4;stroke-dasharray:none;stroke-dashoffset:0;stroke-opacity:1;paint-order:stroke fill markers"
     d="m 135.92462,116 c -22.16,0 -40.000001,17.84 -40.000001,40 0,5.69661 1.18627,11.10403 3.31445,16 h 73.371101 c 2.12818,-4.89597 3.31445,-10.30339 3.31445,-16 0,-22.16 -17.84,-40 -40,-40 z"
     id="rect826"
     inkscape:connector-curvature="0" />
  <path
     style="opacity:1;vector-effect:none;fill:none;fill-opacity:1;fill-rule:evenodd;stroke:#ff837d;stroke-width:8;stroke-linecap:round;stroke-linejoin:round;stroke-miterlimit:4;stroke-dasharray:none;stroke-dashoffset:0;stroke-opacity:1;paint-order:stroke fill markers"
     d="m 172.60938,172 c 2.12817,-4.89597 3.31445,-10.30339 3.31445,-16 0,-4.84969 -0.85275,-9.49295 -2.41992,-13.78711"
     id="path865" />
  <path
     style="opacity:1;vector-effect:none;fill:none;fill-opacity:1;fill-rule:evenodd;stroke:#f9de81;stroke-width:8;stroke-linecap:round;stroke-linejoin:round;stroke-miterlimit:4;stroke-dasharray:none;stroke-dashoffset:0;stroke-opacity:1;paint-order:stroke fill markers"
     d="M 148.689,117.9082 C 144.82641,116.67299 140.20678,116 135.92383,116 c -22.16,0 -40.000002,17.84 -40.000002,40 0,5.69661 1.186273,11.10403 3.314453,16"
     id="rect826-6" />
  <path
     style="fill:#f8c18c;stroke:#f8c18c;stroke-width:8;stroke-linecap:round;stroke-linejoin:round;stroke-miterlimit:4;stroke-dasharray:none;stroke-opacity:1"
     d="m 128,156 c 0,-3.16107 8,-8 8,-8 l 28,-20 -20,28 c 0,0 -4.63554,8 -8,8 -4.78819,0 -8,-2.80503 -8,-8 z"
     id="path857"
     inkscape:connector-curvature="0"
     sodipodi:nodetypes="scccss" />
</svg>

<svg xmlns="http://www.w3.org/2000/svg" id="svg16" version="1.1" viewBox="0 0 192 192"><defs id="defs4"><style id="style2">.a{fill:none;stroke:#b1b5bd;stroke-linecap:round;stroke-linejoin:round;isolation:isolate;opacity:.63}</style></defs><path id="path2" d="M114.99 61.365c-12.654-37.599-14.393-41.107-18.941-41.261-4.548-.154-5.294 2.64-18.707 41.378l-30.993 87.193A5 5 0 0 1 41.638 152H30.004c-5.523 0-10 4.477-10 10s4.477 10 10 10h132c5.523 0 10-4.477 10-10s-4.477-10-10-10h-10.657a5 5 0 0 1-4.701-3.296z" style="clip-rule:evenodd;fill:#f8c18c;fill-rule:evenodd"/><path id="path8" d="M77.154 62 66.49 92h59.6l-10.873-30zm-21.326 60-9.482 26.676A5 5 0 0 1 41.635 152h109.71a5.001 5.001 0 0 1-4.702-3.297L136.963 122H55.83z" style="clip-rule:evenodd;fill:#fff;fill-rule:evenodd"/><path id="rect826" d="M135.925 116c-22.16 0-40 17.84-40 40a40.029 40.029 0 0 0 3.314 16h73.371a40.029 40.029 0 0 0 3.315-16c0-22.16-17.84-40-40-40z" style="opacity:1;vector-effect:none;fill:#fff;fill-opacity:1;fill-rule:evenodd;stroke:none;stroke-width:4;stroke-linecap:round;stroke-linejoin:round;stroke-miterlimit:4;stroke-dasharray:none;stroke-dashoffset:0;stroke-opacity:1;paint-order:stroke fill markers"/><path id="path865" d="M172.61 172a40.029 40.029 0 0 0 3.314-16c0-4.85-.853-9.493-2.42-13.787" style="opacity:1;vector-effect:none;fill:none;fill-opacity:1;fill-rule:evenodd;stroke:#ff837d;stroke-width:8;stroke-linecap:round;stroke-linejoin:round;stroke-miterlimit:4;stroke-dasharray:none;stroke-dashoffset:0;stroke-opacity:1;paint-order:stroke fill markers"/><path id="rect826-6" d="M148.689 117.908c-3.863-1.235-8.482-1.908-12.765-1.908-22.16 0-40 17.84-40 40a40.029 40.029 0 0 0 3.314 16" style="opacity:1;vector-effect:none;fill:none;fill-opacity:1;fill-rule:evenodd;stroke:#f9de81;stroke-width:8;stroke-linecap:round;stroke-linejoin:round;stroke-miterlimit:4;stroke-dasharray:none;stroke-dashoffset:0;stroke-opacity:1;paint-order:stroke fill markers"/><path id="path857" d="M128 156c0-3.161 8-8 8-8l28-20-20 28s-4.636 8-8 8c-4.788 0-8-2.805-8-8z" style="fill:#f8c18c;stroke:#f8c18c;stroke-width:8;stroke-linecap:round;stroke-linejoin:round;stroke-miterlimit:4;stroke-dasharray:none;stroke-opacity:1"/></svg>
